X: 33716
T: Rascal On The Haystack
R: reel
M: 4/4
K: Dmixolydian
Ad ~d2 ed ~d2|Addf abaf|ed ~d2 ed^cd|ABcA TG2FG:|
ADFA ~d2dB|c2cG EFGE|EDFA dfed|cage ed d2:|

